X:211
T:The Chestnut Tree
Z:Jack Campin, http://www.campin.me.uk/
F:Jack Campin's Nine-Note Tunebook
% last edit 03-02-2013
N:related to the Scots "Rattlin Roarin Willie"
M:9/8
L:1/8
Q:3/8=112
K:G
AFD DED ABc|BAG GFG    ABc |
BAG AFD DED|AFD DEF [1 G2z:|\
                    [2 GBc||
dBG GFG ABc|dBG GFG    A2F |
DED c2A B2G|AFD DEF [1 GBc:|\
                    [2 G2z|]

